X:145
T:Happy Polka
C:Traditional
K:D
R:Polka
M:2/4
S:Conal O'Grada
af/a/ f/a/f/a/ |  af/a/ f/a/f/a/ | af bf | af ba |
ge/g/ e/g/e/g/ | ge ce | ba g/f/e |[1 ba g/f/e :|[2 d2 ag |]
| f3 f | e2 d2 | B/c/d ef | ba af |
g3 g | f2 e2 | dc Bc | BA FA |
f3 f | e2 d2 | B/c/d ef | ba af |
g/a/g/a/ g/a/g/a/ | f/a/f/a/ f/a/f/a/ | eA Bc | d2 b2 ||

%%newpage
%%scale .7
%%staffsep 40

